symbolic/24x24/places/folder-deeporange-pictures.svg

<svg xmlns="http://www.w3.org/2000/svg" width="24" height="24" version="1"><rect style="opacity:.2" width="20" height="12" x="2" y="9.5" rx="1" ry="1"/><path style="fill:#e95420" d="M2 17c0 .554.446 1 1 1h18c.554 0 1-.446 1-1V6c0-.554-.446-1-1-1h-9c-1.5 0-2-2-3.5-2H3c-.554 0-1 .446-1 1"/><rect style="opacity:.2" width="20" height="12" x="2" y="8.5" rx="1" ry="1"/><rect style="fill:#e4e4e4" width="16" height="8" x="4" y="7" rx="1" ry="1"/><rect style="fill:#eb6637" width="20" height="12" x="2" y="9" rx="1" ry="1"/><path style="opacity:.1;fill:#fff" d="M3 3c-.554 0-1 .446-1 1v.5c0-.554.446-1 1-1h5.5c1.5 0 2 2 3.5 2h9c.554 0 1 .446 1 1V6c0-.554-.446-1-1-1h-9c-1.5 0-2-2-3.5-2z"/><path style="fill:#522413" d="M9.5 12c-.5 0-.5.5-.5.5v5c0 .5.5.5.5.5h6s.5 0 .5-.5v-5c0-.5-.5-.5-.5-.5zm3.5 4 1-1.22L15 16v1h-5v-1.5l1.25-1.25z"/></svg>

<svg xmlns="http://www.w3.org/2000/svg" width="24" height="24" version="1">
 <rect style="opacity:0.2" width="20" height="12" x="2" y="9.5" rx="1" ry="1"/>
 <path style="fill:#e95420" d="M 2,17 C 2,17.554 2.446,18 3,18 H 21 C 21.554,18 22,17.554 22,17 V 6 C 22,5.446 21.554,5 21,5 H 12 C 10.5,5 10,3 8.5,3 H 3 C 2.446,3 2,3.446 2,4"/>
 <rect style="opacity:0.2" width="20" height="12" x="2" y="8.5" rx="1" ry="1"/>
 <rect style="fill:#e4e4e4" width="16" height="8" x="4" y="7" rx="1" ry="1"/>
 <rect style="fill:#eb6637" width="20" height="12" x="2" y="9" rx="1" ry="1"/>
 <path style="opacity:0.1;fill:#ffffff" d="M 3,3 C 2.446,3 2,3.446 2,4 V 4.5 C 2,3.946 2.446,3.5 3,3.5 H 8.5 C 10,3.5 10.5,5.5 12,5.5 H 21 C 21.554,5.5 22,5.946 22,6.5 V 6 C 22,5.446 21.554,5 21,5 H 12 C 10.5,5 10,3 8.5,3 Z"/>
 <path style="fill:#522413" d="M 9.5,12 C 9,12 9,12.5 9,12.5 V 17.5 C 9,18 9.5,18 9.5,18 H 15.5 C 15.5,18 16,18 16,17.5 V 12.5 C 16,12 15.5,12 15.5,12 Z M 13,16 14,14.78 15,16 V 17 H 10 V 15.5 L 11.25,14.25 Z"/>
</svg>
